!! 00000] TT[WS
!!!OTL: Xiu hebao
!!!ARE: Asia, China,ÿShanxi Wuxiang
!! Ethnic Group: Han
!! WI, 112
!!!SCT: J0130
!!!YEM: Copyright 1995, estate of Helmut Schaffrath.
**kern
*ICvox
*Ivox
*M2/4
*k[]
*C:
{8.dd
16ee
8.a
16dd
=1
2cc
=2
8.dd
16cc
8.a
16g
=3
8.a
16g
8r
8e
=4
2g}
=5
{8.g
16a
8.cc
16ee
=6
8.dd
16cc
8.a
16g
=7
8.a
16g
8r
8e
=8
2g}
=9
{8.g
16a
4cc
=10
8.dd
16ee
8.dd
16cc
=11
8.e
16g
8.a
16cc
=12
8.g
16a
8.g
16e}
=13
{8.d
16e
8.g
16a
=14
8.a
16g
8.e
16d
=15
8c
4c
8d
=16
2c}
=17
{4.g
8a
=18
8.g
16a
8.g
16e
=19
8.d
16e
8.g
16a
=20
8.a
16g
8.e
16d
=21
8cc
4cc
8dd
=22
2cc}
==
!!!AGN: Xiaodiao. Qingge
!!!ONB: ESAC (Essen Associative Code) Database: CHINA
!!!AMT: simple duple
!!!AIN: vox
!!!EED: Helmut Schaffrath
!!!EEV: 1.0
*-
